X:15
T:Alfred
S:John Moore's Book 3
Z:Transcribed by Steve Mansfield 05/2021
%%VWML: Moore1-4495-p13-0
F:https://www.vwml.org/record/Moore3/4495/p13
M:2/4
L:1/8
K:D
d2ec | d3A | B2c2 | d4 | 
w:When I sur-vey thy won-drous cross
f2ed | (dc) (BA) | (cB) (A^G) | A4 ||
w:on which* the prince* of glory*** died
A2GF | B2A2 | Bc de | d2 c2 | 
w:my richest* gain I count*** but loss
dA A G | F>G A2 | BA GF | F2E2 | 
w:and* pour* contempt** on* all* my pride
AB c d | A2d2 | d2c2 | d4 |]
w:and* pour* contempt* on all~my pride

